X: 219
T: The Good Girl
%R: reel
B: "Twenty Four Country Dances for the Year 1793", Preston & Son, eds. p.90
F: http://www.vwml.org/browse/browse-collections-dance-tune-books/browse-prestons1793# 2014-8-7
Z: 2014 John Chambers <jc:trillian.mit.edu>
N: The rhythms between strains isn't quite correct, due to the 4th strain's pickup e note.
M: C|
L: 1/8
K: C
|:\
[c2E2G,2]ec BdGB | [c2E2G,2]ec BdGB |\
c2cG cege | dcBA G2G2 :|
|:\
Gceg {a}f2ed | GBdf {f}e2dc |\
Gceg Acfa | gfed c2c2 :|
|:\
E2 {G}(F3/E//F//) G3c | GFED {F}E2DC |\
E2 {G}(F3/E//F//) G3A | GFED C3 :|
|: e |\
fadf egce | defd cBAG |\
f4 e2c2 | edcB c4 :|
% = = = = = = = = = = = = = = = = = = = = = = = = =
%%begintext align
%% The 1st Lady set to the 2d Gent.n & turn .| The 1st Gent.n set to the
%% 2d Lady & turn :| Lead down 2 Cu.s up 1 :|. Allemande :|: Lead
%% thro the bottom come up 1 Cu: & foot it .|| Lead thro the top
%% & cast off :|| Hands 4 at bottom :||. Right & Left at top :||:
%%endtext
% = = = = = = = = = = = = = = = = = = = = = = = = =

%%sep 1 1 500
%%sep 1 1 500
